packages/core/src/svgs/tokens/branded/GAFI.svg

<svg width="24" height="24" viewBox="0 0 24 24" fill="none" xmlns="http://www.w3.org/2000/svg">
<path d="M3.57896 7.78949C3.16018 7.78949 2.75858 7.95584 2.46247 8.25196C2.16636 8.54806 2 8.94968 2 9.36844V14.6316C2 15.0504 2.16636 15.4519 2.46247 15.7482C2.75858 16.0442 3.16018 16.2105 3.57896 16.2105H10.4211C10.8399 16.2105 11.2415 16.0442 11.5376 15.7482C11.8336 15.4519 12 15.0504 12 14.6316V12.5263C12 12.1075 11.8336 11.7059 11.5376 11.4099C11.2415 11.1138 10.8399 10.9474 10.4211 10.9474H5.68422V13.0527H9.36844V13.579H4.63159V10.421H12V7.78949H3.57896ZM15.1579 9.89479H21.4738V8.3158H14.6316C14.3524 8.3158 14.0847 8.42671 13.8872 8.62411C13.6899 8.82152 13.579 9.08926 13.579 9.36844V15.6843H15.1579V13.0527H21.4738V11.4737H15.1579V9.89479ZM15.6843 16C15.6843 16.0559 15.662 16.1094 15.6226 16.1489C15.5831 16.1884 15.5295 16.2105 15.4738 16.2105H13.2632C13.2074 16.2105 13.1538 16.1884 13.1143 16.1489C13.0749 16.1094 13.0526 16.0559 13.0526 16V9.36844C13.0526 8.94968 13.219 8.54806 13.5151 8.25196C13.8112 7.95584 14.2128 7.78949 14.6316 7.78949H21.7895C21.9053 7.78949 22 7.88422 22 8.00002V10.2105C22 10.2664 21.9779 10.3199 21.9383 10.3594C21.8989 10.3989 21.8454 10.421 21.7895 10.421H15.6843V10.9474H21.7895C21.9053 10.9474 22 11.0422 22 11.1579V13.3684C22 13.4243 21.9779 13.4778 21.9383 13.5174C21.8989 13.5568 21.8454 13.579 21.7895 13.579H15.6843V16Z" fill="#72F34B"/>
</svg>

<svg xmlns="http://www.w3.org/2000/svg" width="24" height="24" fill="none" viewBox="0 0 24 24">
    <path fill="#72F34B" d="M3.579 7.79A1.58 1.58 0 0 0 2 9.367v5.264a1.58 1.58 0 0 0 1.579 1.579h6.842A1.58 1.58 0 0 0 12 14.63v-2.105a1.58 1.58 0 0 0-1.579-1.579H5.684v2.106h3.684v.526H4.632V10.42H12V7.789zm11.579 2.105h6.316v-1.58h-6.842a1.053 1.053 0 0 0-1.053 1.053v6.316h1.579v-2.631h6.316v-1.58h-6.316zM15.684 16a.21.21 0 0 1-.21.21h-2.21a.21.21 0 0 1-.211-.21V9.368a1.58 1.58 0 0 1 1.579-1.579h7.158c.115 0 .21.095.21.211v2.21a.21.21 0 0 1-.21.211h-6.106v.526h6.106c.115 0 .21.095.21.21v2.211a.21.21 0 0 1-.21.211h-6.106z"/>
</svg>
